src/epub/images/titlepage.svg

<?xml version="1.0" encoding="utf-8"?>
<svg xmlns="http://www.w3.org/2000/svg" xmlns:svg="http://www.w3.org/2000/svg" version="1.1" viewBox="0 0 1400 340">
	<title>The titlepage for the Standard Ebooks edition of Short Fiction, by Algis Budrys</title>
	<g>
		<path d="m 326.86549,51.403507 c -12.44444,0 -25.16959,9.169591 -25.16959,23.578948 0,8.046784 5.4269,15.251462 14.69006,19.836258 9.16959,4.584795 17.40351,7.111107 17.40351,12.725147 0,7.20468 -7.29825,7.57895 -11.13451,7.57895 -8.60818,0 -18.90058,-8.70176 -18.90058,-8.70176 l -8.79532,14.78363 c 0,0 10.94737,10.19883 29.00585,10.19883 15.06432,0 29.09941,-6.45614 29.09941,-24.88889 0,-10.105264 -9.45029,-17.40351 -18.05848,-21.052632 -8.79532,-3.742691 -16.09357,-6.83041 -16.09357,-11.134504 0,-4.210526 3.18129,-6.923976 9.1696,-6.923976 7.95321,0 15.62573,5.333333 15.62573,5.333333 l 7.11111,-14.035088 c 0,0 -9.91813,-7.298246 -23.95322,-7.298246 z"/>
		<path d="m 383.87718,99.029239 24.88889,0 0,30.970761 17.59065,0 0,-77.192984 -17.59065,0 0,30.783626 -24.88889,0 0,-30.783626 -17.59064,0 0,77.192984 17.59064,0 0,-30.970761 z"/>
		<path d="m 439.09649,91.356724 c 0,22.549706 16.09357,40.046786 38.92398,40.046786 22.17544,0 38.83041,-17.49708 38.83041,-40.046786 0,-22.549708 -17.40351,-39.953217 -38.83041,-39.953217 -21.23977,0 -38.92398,17.403509 -38.92398,39.953217 z m 18.99416,0 c 0,-11.508772 6.36257,-23.017544 19.92982,-23.017544 13.66082,0 19.83626,11.508772 19.83626,23.017544 0,11.508776 -5.80117,23.017546 -19.83626,23.017546 -14.40936,0 -19.92982,-11.50877 -19.92982,-23.017546 z"/>
		<path d="m 529.61257,52.807016 0,77.192984 17.59065,0 0,-30.502925 L 570.78217,130 l 22.36257,0 -26.5731,-31.906433 c 9.45029,-2.994152 15.81287,-10.760234 15.81287,-22.362574 0,-15.157895 -10.85381,-22.923977 -25.1696,-22.923977 l -27.60234,0 z m 17.59065,34.245615 0,-20.210527 2.05848,0 c 6.64327,0 14.59649,0.467836 14.59649,10.105263 0,9.637428 -7.95322,10.105264 -14.59649,10.105264 l -2.05848,0 z"/>
		<path d="m 593.1608,68.245613 18.33919,0 0,61.754387 17.59064,0 0,-61.754387 18.33918,0 0,-15.438597 -54.26901,0 0,15.438597 z"/>
		<path d="m 733.981,52.807016 -44.63158,0 0,77.192984 17.59064,0 0,-30.970761 24.98246,0 0,-15.438597 -24.98246,0 0,-15.345029 27.04094,0 0,-15.438597 z"/>
		<path d="m 764.93714,52.807016 -17.59065,0 0,77.192984 17.59065,0 0,-77.192984 z"/>
		<path d="m 819.3728,114.09357 c -17.68421,0 -25.45029,-12.35088 -25.45029,-22.736846 0,-10.292397 7.76608,-22.643275 25.45029,-22.643275 8.98246,0 15.1579,4.77193 15.1579,4.77193 l 7.48538,-14.97076 c 0,0 -8.60819,-7.111112 -25.35673,-7.111112 -21.89473,0 -41.82456,17.964913 -41.82456,40.140352 0,22.081871 20.02339,39.859651 41.82456,39.859651 16.74854,0 25.35673,-7.11111 25.35673,-7.11111 l -7.48538,-14.97076 c 0,0 -6.17544,4.77193 -15.1579,4.77193 z"/>
		<path d="m 848.97224,68.245613 18.33918,0 0,61.754387 17.59064,0 0,-61.754387 18.33918,0 0,-15.438597 -54.269,0 0,15.438597 z"/>
		<path d="m 932.16666,52.807016 -17.59065,0 0,77.192984 17.59065,0 0,-77.192984 z"/>
		<path d="m 944.98829,91.356724 c 0,22.549706 16.09357,40.046786 38.92398,40.046786 22.17543,0 38.83043,-17.49708 38.83043,-40.046786 0,-22.549708 -17.4035,-39.953217 -38.83043,-39.953217 -21.23977,0 -38.92398,17.403509 -38.92398,39.953217 z m 18.99416,0 c 0,-11.508772 6.36257,-23.017544 19.92982,-23.017544 13.66082,0 19.83623,11.508772 19.83623,23.017544 0,11.508776 -5.80114,23.017546 -19.83623,23.017546 -14.40936,0 -19.92982,-11.50877 -19.92982,-23.017546 z"/>
		<path d="m 1053.095,82.093566 0.1871,0 30.6901,47.906434 17.5906,0 0,-77.192984 -17.5906,0 0,47.906434 -0.1871,0 -30.6901,-47.906434 -17.5906,0 0,77.192984 17.5906,0 0,-47.906434 z"/>
	</g>
	<g>
		<path d="m 441.37994,232.10526 -12.21053,0 L 405.80099,290 l 14.17544,0 4.2807,-11.57895 22.03509,0 4.2807,11.57895 14.17544,0 -23.36842,-57.89474 z m 0.42105,34.73685 -13.05263,0 L 435.2045,250 l 0.14035,0 6.45614,16.84211 z"/>
		<path d="m 485.13103,232.10526 -13.19298,0 0,57.89474 33.12281,0 0,-11.57895 -19.92983,0 0,-46.31579 z"/>
		<path d="m 568.89968,257.57895 -26.73684,0 0,10.17544 13.33333,0 c 0,7.08772 -6.24562,11.15789 -12.5614,11.15789 -8.14036,0 -14.73685,-8 -14.73685,-17.82456 0,-10.03509 6.59649,-18.10526 14.73685,-18.10526 5.1228,0 9.54385,2.03508 12.91228,7.43859 l 8.63157,-9.47368 c -5.05263,-6.10526 -12.14035,-9.89474 -22.31578,-9.89474 -16.28071,0 -28.21053,13.40351 -28.21053,30.03509 0,16.5614 12.63158,29.96491 28.21053,29.96491 11.36842,0 23.57894,-6.24561 26.73684,-20.91228 l 0,-12.5614 z"/>
		<path d="m 592.85581,232.10526 -13.19298,0 0,57.89474 13.19298,0 0,-57.89474 z"/>
		<path d="m 626.28126,231.05263 c -9.33334,0 -18.8772,6.8772 -18.8772,17.68421 0,6.03509 4.07018,11.4386 11.01755,14.8772 6.87719,3.43859 13.05263,5.33333 13.05263,9.54385 0,5.40351 -5.47368,5.68422 -8.35088,5.68422 -6.45614,0 -14.17544,-6.52632 -14.17544,-6.52632 l -6.59649,11.08772 c 0,0 8.21053,7.64912 21.75439,7.64912 11.29824,0 21.82456,-4.8421 21.82456,-18.66666 0,-7.57895 -7.08772,-13.05264 -13.54386,-15.78948 -6.59649,-2.80702 -12.07017,-5.12281 -12.07017,-8.35088 0,-3.15789 2.38596,-5.19298 6.87719,-5.19298 5.96491,0 11.7193,4 11.7193,4 l 5.33333,-10.52631 c 0,0 -7.4386,-5.47369 -17.96491,-5.47369 z"/>
		<path d="m 681.28563,232.10526 0,57.89474 21.96491,0 c 12,0 18.94737,-6.59649 18.94737,-16.14035 0,-9.33333 -5.1228,-13.33333 -12.35087,-14.59649 4.91228,-2.52632 7.22807,-7.08772 7.22807,-12.42105 0,-11.01755 -7.85965,-14.73685 -17.82457,-14.73685 l -17.96491,0 z m 13.19298,22.66667 0,-12.49123 1.05264,0 c 5.75438,0 8.77193,1.75439 8.77193,5.89474 0,4.8421 -3.08772,6.59649 -8.77193,6.59649 l -1.05264,0 z m 0,25.05263 0,-13.68421 4.14036,0 c 6.24561,0 9.68421,1.89474 9.68421,7.22807 0,4.5614 -3.4386,6.45614 -9.68421,6.45614 l -4.14036,0 z"/>
		<path d="m 777.51481,232.10526 -13.19299,0 0,33.47369 c 0,9.68421 -2.94737,12.49123 -9.40351,12.49123 -6.45614,0 -9.4035,-2.80702 -9.4035,-12.49123 l 0,-33.47369 -13.19299,0 0,37.33334 c 0,14.31579 7.85965,21.61403 22.59649,21.61403 14.73685,0 22.5965,-7.29824 22.5965,-21.61403 l 0,-37.33334 z"/>
		<path d="m 790.24398,232.10526 0,57.89474 16.77193,0 c 15.92982,0 29.19298,-12.07018 29.19298,-28.98246 0,-16.8421 -13.33334,-28.91228 -29.19298,-28.91228 l -16.77193,0 z m 13.19298,46.10527 0,-34.31579 2.03509,0 c 9.82456,0 16.49122,7.50877 16.49122,17.19298 -0.0702,9.68421 -6.73684,17.12281 -16.49122,17.12281 l -2.03509,0 z"/>
		<path d="m 847.05318,232.10526 0,57.89474 13.19298,0 0,-22.87719 17.68421,22.87719 16.77193,0 -19.92982,-23.92982 c 7.08772,-2.24562 11.85965,-8.07018 11.85965,-16.77193 0,-11.36842 -8.14035,-17.19299 -18.8772,-17.19299 l -20.70175,0 z m 13.19298,25.68421 0,-15.15789 1.54386,0 c 4.98246,0 10.94737,0.35088 10.94737,7.57895 0,7.22807 -5.96491,7.57894 -10.94737,7.57894 l -1.54386,0 z"/>
		<path d="m 889.73409,232.10526 21.33334,31.92983 0,25.96491 13.19298,0 0,-25.96491 21.33333,-31.92983 -15.85965,0 -12.07017,18.52632 -12.07018,-18.52632 -15.85965,0 z"/>
		<path d="m 970.62885,231.05263 c -9.33333,0 -18.87719,6.8772 -18.87719,17.68421 0,6.03509 4.07018,11.4386 11.01754,14.8772 6.8772,3.43859 13.05264,5.33333 13.05264,9.54385 0,5.40351 -5.47369,5.68422 -8.35088,5.68422 -6.45614,0 -14.17544,-6.52632 -14.17544,-6.52632 l -6.59649,11.08772 c 0,0 8.21052,7.64912 21.75438,7.64912 11.29825,0 21.82457,-4.8421 21.82457,-18.66666 0,-7.57895 -7.08772,-13.05264 -13.54386,-15.78948 -6.5965,-2.80702 -12.07018,-5.12281 -12.07018,-8.35088 0,-3.15789 2.38597,-5.19298 6.87719,-5.19298 5.96492,0 11.7193,4 11.7193,4 l 5.33333,-10.52631 c 0,0 -7.43859,-5.47369 -17.96491,-5.47369 z"/>
	</g>
</svg>

<?xml version="1.0" encoding="utf-8"?>
<svg xmlns="http://www.w3.org/2000/svg" xmlns:svg="http://www.w3.org/2000/svg" version="1.1" viewBox="0 0 1400 340">
	<title>The titlepage for the Standard Ebooks edition of Short Fiction, by Algis Budrys</title>
	<g aria-label="SHORT FICTION">
		<path d="m 326.86549,51.403507 c -12.44444,0 -25.16959,9.169591 -25.16959,23.578948 0,8.046784 5.4269,15.251462 14.69006,19.836258 9.16959,4.584795 17.40351,7.111107 17.40351,12.725147 0,7.20468 -7.29825,7.57895 -11.13451,7.57895 -8.60818,0 -18.90058,-8.70176 -18.90058,-8.70176 l -8.79532,14.78363 c 0,0 10.94737,10.19883 29.00585,10.19883 15.06432,0 29.09941,-6.45614 29.09941,-24.88889 0,-10.105264 -9.45029,-17.40351 -18.05848,-21.052632 -8.79532,-3.742691 -16.09357,-6.83041 -16.09357,-11.134504 0,-4.210526 3.18129,-6.923976 9.1696,-6.923976 7.95321,0 15.62573,5.333333 15.62573,5.333333 l 7.11111,-14.035088 c 0,0 -9.91813,-7.298246 -23.95322,-7.298246 z"/>
		<path d="m 383.87718,99.029239 h 24.88889 V 130 h 17.59065 V 52.807016 H 408.76607 V 83.590642 H 383.87718 V 52.807016 H 366.28654 V 130 h 17.59064 z"/>
		<path d="m 439.09649,91.356724 c 0,22.549706 16.09357,40.046786 38.92398,40.046786 22.17544,0 38.83041,-17.49708 38.83041,-40.046786 0,-22.549708 -17.40351,-39.953217 -38.83041,-39.953217 -21.23977,0 -38.92398,17.403509 -38.92398,39.953217 z m 18.99416,0 c 0,-11.508772 6.36257,-23.017544 19.92982,-23.017544 13.66082,0 19.83626,11.508772 19.83626,23.017544 0,11.508776 -5.80117,23.017546 -19.83626,23.017546 -14.40936,0 -19.92982,-11.50877 -19.92982,-23.017546 z"/>
		<path d="M 529.61257,52.807016 V 130 h 17.59065 V 99.497075 L 570.78217,130 h 22.36257 l -26.5731,-31.906433 c 9.45029,-2.994152 15.81287,-10.760234 15.81287,-22.362574 0,-15.157895 -10.85381,-22.923977 -25.1696,-22.923977 z m 17.59065,34.245615 V 66.842104 h 2.05848 c 6.64327,0 14.59649,0.467836 14.59649,10.105263 0,9.637428 -7.95322,10.105264 -14.59649,10.105264 z"/>
		<path d="m 593.1608,68.245613 h 18.33919 V 130 h 17.59064 V 68.245613 h 18.33918 V 52.807016 H 593.1608 Z"/>
		<path d="M 733.981,52.807016 H 689.34942 V 130 h 17.59064 V 99.029239 h 24.98246 V 83.590642 H 706.94006 V 68.245613 H 733.981 Z"/>
		<path d="M 764.93714,52.807016 H 747.34649 V 130 h 17.59065 z"/>
		<path d="m 819.3728,114.09357 c -17.68421,0 -25.45029,-12.35088 -25.45029,-22.736846 0,-10.292397 7.76608,-22.643275 25.45029,-22.643275 8.98246,0 15.1579,4.77193 15.1579,4.77193 l 7.48538,-14.97076 c 0,0 -8.60819,-7.111112 -25.35673,-7.111112 -21.89473,0 -41.82456,17.964913 -41.82456,40.140352 0,22.081871 20.02339,39.859651 41.82456,39.859651 16.74854,0 25.35673,-7.11111 25.35673,-7.11111 l -7.48538,-14.97076 c 0,0 -6.17544,4.77193 -15.1579,4.77193 z"/>
		<path d="m 848.97224,68.245613 h 18.33918 V 130 h 17.59064 V 68.245613 h 18.33918 V 52.807016 h -54.269 z"/>
		<path d="M 932.16666,52.807016 H 914.57601 V 130 h 17.59065 z"/>
		<path d="m 944.98829,91.356724 c 0,22.549706 16.09357,40.046786 38.92398,40.046786 22.17543,0 38.83043,-17.49708 38.83043,-40.046786 0,-22.549708 -17.4035,-39.953217 -38.83043,-39.953217 -21.23977,0 -38.92398,17.403509 -38.92398,39.953217 z m 18.99416,0 c 0,-11.508772 6.36257,-23.017544 19.92982,-23.017544 13.66082,0 19.83623,11.508772 19.83623,23.017544 0,11.508776 -5.80114,23.017546 -19.83623,23.017546 -14.40936,0 -19.92982,-11.50877 -19.92982,-23.017546 z"/>
		<path d="m 1053.095,82.093566 h 0.1871 L 1083.9722,130 h 17.5906 V 52.807016 h -17.5906 v 47.906434 h -0.1871 L 1053.095,52.807016 h -17.5906 V 130 h 17.5906 z"/>
	</g>
	<g aria-label="ALGIS BUDRYS">
		<path d="M 441.37994,232.10526 H 429.16941 L 405.80099,290 h 14.17544 l 4.2807,-11.57895 h 22.03509 L 450.57292,290 h 14.17544 z m 0.42105,34.73685 H 428.74836 L 435.2045,250 h 0.14035 z"/>
		<path d="M 485.13103,232.10526 H 471.93805 V 290 h 33.12281 v -11.57895 h -19.92983 z"/>
		<path d="m 568.89968,257.57895 h -26.73684 v 10.17544 h 13.33333 c 0,7.08772 -6.24562,11.15789 -12.5614,11.15789 -8.14036,0 -14.73685,-8 -14.73685,-17.82456 0,-10.03509 6.59649,-18.10526 14.73685,-18.10526 5.1228,0 9.54385,2.03508 12.91228,7.43859 l 8.63157,-9.47368 c -5.05263,-6.10526 -12.14035,-9.89474 -22.31578,-9.89474 -16.28071,0 -28.21053,13.40351 -28.21053,30.03509 0,16.5614 12.63158,29.96491 28.21053,29.96491 11.36842,0 23.57894,-6.24561 26.73684,-20.91228 z"/>
		<path d="M 592.85581,232.10526 H 579.66283 V 290 h 13.19298 z"/>
		<path d="m 626.28126,231.05263 c -9.33334,0 -18.8772,6.8772 -18.8772,17.68421 0,6.03509 4.07018,11.4386 11.01755,14.8772 6.87719,3.43859 13.05263,5.33333 13.05263,9.54385 0,5.40351 -5.47368,5.68422 -8.35088,5.68422 -6.45614,0 -14.17544,-6.52632 -14.17544,-6.52632 l -6.59649,11.08772 c 0,0 8.21053,7.64912 21.75439,7.64912 11.29824,0 21.82456,-4.8421 21.82456,-18.66666 0,-7.57895 -7.08772,-13.05264 -13.54386,-15.78948 -6.59649,-2.80702 -12.07017,-5.12281 -12.07017,-8.35088 0,-3.15789 2.38596,-5.19298 6.87719,-5.19298 5.96491,0 11.7193,4 11.7193,4 l 5.33333,-10.52631 c 0,0 -7.4386,-5.47369 -17.96491,-5.47369 z"/>
		<path d="M 681.28563,232.10526 V 290 h 21.96491 c 12,0 18.94737,-6.59649 18.94737,-16.14035 0,-9.33333 -5.1228,-13.33333 -12.35087,-14.59649 4.91228,-2.52632 7.22807,-7.08772 7.22807,-12.42105 0,-11.01755 -7.85965,-14.73685 -17.82457,-14.73685 z m 13.19298,22.66667 V 242.2807 h 1.05264 c 5.75438,0 8.77193,1.75439 8.77193,5.89474 0,4.8421 -3.08772,6.59649 -8.77193,6.59649 z m 0,25.05263 v -13.68421 h 4.14036 c 6.24561,0 9.68421,1.89474 9.68421,7.22807 0,4.5614 -3.4386,6.45614 -9.68421,6.45614 z"/>
		<path d="m 777.51481,232.10526 h -13.19299 v 33.47369 c 0,9.68421 -2.94737,12.49123 -9.40351,12.49123 -6.45614,0 -9.4035,-2.80702 -9.4035,-12.49123 v -33.47369 h -13.19299 v 37.33334 c 0,14.31579 7.85965,21.61403 22.59649,21.61403 14.73685,0 22.5965,-7.29824 22.5965,-21.61403 z"/>
		<path d="M 790.24398,232.10526 V 290 h 16.77193 c 15.92982,0 29.19298,-12.07018 29.19298,-28.98246 0,-16.8421 -13.33334,-28.91228 -29.19298,-28.91228 z m 13.19298,46.10527 v -34.31579 h 2.03509 c 9.82456,0 16.49122,7.50877 16.49122,17.19298 -0.0702,9.68421 -6.73684,17.12281 -16.49122,17.12281 z"/>
		<path d="M 847.05318,232.10526 V 290 h 13.19298 V 267.12281 L 877.93037,290 h 16.77193 l -19.92982,-23.92982 c 7.08772,-2.24562 11.85965,-8.07018 11.85965,-16.77193 0,-11.36842 -8.14035,-17.19299 -18.8772,-17.19299 z m 13.19298,25.68421 v -15.15789 h 1.54386 c 4.98246,0 10.94737,0.35088 10.94737,7.57895 0,7.22807 -5.96491,7.57894 -10.94737,7.57894 z"/>
		<path d="m 889.73409,232.10526 21.33334,31.92983 V 290 h 13.19298 v -25.96491 l 21.33333,-31.92983 h -15.85965 l -12.07017,18.52632 -12.07018,-18.52632 z"/>
		<path d="m 970.62885,231.05263 c -9.33333,0 -18.87719,6.8772 -18.87719,17.68421 0,6.03509 4.07018,11.4386 11.01754,14.8772 6.8772,3.43859 13.05264,5.33333 13.05264,9.54385 0,5.40351 -5.47369,5.68422 -8.35088,5.68422 -6.45614,0 -14.17544,-6.52632 -14.17544,-6.52632 l -6.59649,11.08772 c 0,0 8.21052,7.64912 21.75438,7.64912 11.29825,0 21.82457,-4.8421 21.82457,-18.66666 0,-7.57895 -7.08772,-13.05264 -13.54386,-15.78948 -6.5965,-2.80702 -12.07018,-5.12281 -12.07018,-8.35088 0,-3.15789 2.38597,-5.19298 6.87719,-5.19298 5.96492,0 11.7193,4 11.7193,4 l 5.33333,-10.52631 c 0,0 -7.43859,-5.47369 -17.96491,-5.47369 z"/>
	</g>
</svg>
